assets/icons/moduleIcons/report.svg

<svg width="50" height="50" viewBox="0 0 50 50" fill="none" xmlns="http://www.w3.org/2000/svg">
<path d="M31.65 25C31.6648 24.1259 31.5022 23.2579 31.1722 22.4484C30.8422 21.6389 30.3516 20.9046 29.73 20.29C29.1285 19.6457 28.3985 19.1348 27.5872 18.7903C26.7759 18.4458 25.9013 18.2753 25.02 18.29C24.1374 18.2764 23.2616 18.4473 22.4488 18.7917C21.6361 19.1361 20.9042 19.6464 20.3 20.29C19.0374 21.5342 18.3183 23.2274 18.3 25C18.279 25.8822 18.4465 26.7587 18.7914 27.5709C19.1363 28.3832 19.6506 29.1125 20.3 29.71C20.9166 30.3337 21.6508 30.8289 22.4602 31.1669C23.2695 31.5049 24.1379 31.6789 25.015 31.6789C25.8921 31.6789 26.7604 31.5049 27.5698 31.1669C28.3791 30.8289 29.1134 30.3337 29.73 29.71C30.3755 29.1135 30.882 28.3824 31.2138 27.5685C31.5455 26.7546 31.6945 25.8778 31.65 25V25ZM45 22.15V27.94C45.0051 28.1586 44.9383 28.3729 44.81 28.55C44.7541 28.6379 44.6794 28.7123 44.5912 28.7676C44.5029 28.823 44.4034 28.858 44.3 28.87L39.44 29.62C39.176 30.4407 38.8414 31.237 38.44 32C39.04 32.84 39.95 34 41.2 35.6C41.284 35.6765 41.352 35.769 41.4 35.872C41.4481 35.975 41.4753 36.0864 41.48 36.2C41.4776 36.4259 41.3922 36.643 41.24 36.81C40.457 37.8209 39.6014 38.7734 38.68 39.66C37.43 40.9 36.61 41.51 36.2 41.48C35.9651 41.4704 35.7386 41.3902 35.55 41.25L32 38.44C31.238 38.8508 30.4375 39.1857 29.61 39.44C29.4503 41.072 29.2033 42.6944 28.87 44.3C28.8355 44.5199 28.7198 44.7189 28.5458 44.8578C28.3718 44.9966 28.1521 45.0652 27.93 45.05H22.13C21.8882 45.0524 21.6537 44.9672 21.47 44.81C21.3825 44.7453 21.3115 44.6609 21.2628 44.5636C21.2142 44.4663 21.1892 44.3588 21.19 44.25L20.44 39.44C19.6371 39.1714 18.8578 38.8369 18.11 38.44L14.42 41.25C14.2374 41.4013 14.0071 41.4828 13.77 41.48C13.648 41.4821 13.5269 41.4582 13.4149 41.41C13.3028 41.3617 13.2023 41.2901 13.12 41.2C11.568 39.8578 10.1298 38.3894 8.81999 36.81C8.69166 36.6329 8.62492 36.4186 8.62999 36.2C8.64076 35.9907 8.72586 35.7921 8.86999 35.64C9.11999 35.27 9.54999 34.64 10.17 33.92C10.79 33.2 11.26 32.52 11.58 32.05C11.1327 31.2327 10.7708 30.3715 10.5 29.48L5.73999 28.78C5.63544 28.7675 5.53512 28.7313 5.44672 28.6741C5.35832 28.6169 5.28419 28.5403 5.22999 28.45C5.10114 28.2732 5.01863 28.0669 4.98999 27.85V22.06C4.99238 21.8341 5.07781 21.617 5.22999 21.45C5.3433 21.295 5.50523 21.1823 5.68999 21.13L10.55 20.38C10.8083 19.5572 11.1431 18.7604 11.55 18C10.83 17 9.89999 15.8 8.73999 14.4C8.57054 14.2247 8.47097 13.9935 8.45999 13.75C8.47979 13.5429 8.56369 13.3472 8.69999 13.19C9.49336 12.2005 10.3519 11.2651 11.27 10.39C12.51 9.13999 13.33 8.51999 13.74 8.51999C13.9899 8.5318 14.2318 8.6113 14.44 8.74999L18.03 11.56C18.7723 11.1447 19.5568 10.8094 20.37 10.56C20.5232 8.92401 20.7872 7.30029 21.16 5.69999C21.1968 5.47904 21.3194 5.28156 21.501 5.15048C21.6827 5.01941 21.9087 4.96532 22.13 4.99999H27.91C28.1359 5.00238 28.353 5.08781 28.52 5.23999C28.6094 5.30673 28.6847 5.39063 28.7414 5.48678C28.798 5.58293 28.8349 5.68941 28.85 5.79999L29.55 10.61C30.3626 10.8682 31.1576 11.1788 31.93 11.54L35.62 8.77999C35.699 8.70276 35.793 8.64251 35.8962 8.60295C35.9994 8.5634 36.1096 8.54538 36.22 8.54999C36.4583 8.55762 36.6886 8.63787 36.88 8.77999C38.4289 10.1403 39.8637 11.6253 41.17 13.22C41.2999 13.377 41.3676 13.5763 41.36 13.78C41.3651 13.9986 41.2983 14.2129 41.17 14.39C40.89 14.76 40.44 15.39 39.82 16.11C39.2 16.83 38.73 17.51 38.42 17.98C38.8542 18.7849 39.2124 19.6286 39.49 20.5L44.25 21.25C44.3606 21.265 44.4671 21.302 44.5632 21.3586C44.6594 21.4153 44.7432 21.4905 44.81 21.58C44.885 21.6591 44.9411 21.7542 44.974 21.8581C45.0069 21.9621 45.0158 22.0721 45 22.18V22.15Z" fill="#000"/>
</svg>

<svg xmlns="http://www.w3.org/2000/svg" viewBox="0 0 50 50"><path fill="#000" d="M31.65,25a6.47,6.47,0,0,0-1.92-4.71,6.3,6.3,0,0,0-4.71-2,6.34,6.34,0,0,0-4.72,2,6.71,6.71,0,0,0-2,4.71,6.2,6.2,0,0,0,2,4.71,6.63,6.63,0,0,0,9.43,0A6,6,0,0,0,31.65,25ZM45,22.15v5.79a1,1,0,0,1-.19.61.7.7,0,0,1-.51.32l-4.86.75a14.93,14.93,0,0,1-1,2.38c.6.84,1.51,2,2.76,3.6a.86.86,0,0,1,.28.6.92.92,0,0,1-.24.61,26.34,26.34,0,0,1-2.56,2.85c-1.25,1.24-2.07,1.85-2.48,1.82a1.17,1.17,0,0,1-.65-.23L32,38.44a13.22,13.22,0,0,1-2.39,1,45.92,45.92,0,0,1-.74,4.86.89.89,0,0,1-.94.75H22.13a1,1,0,0,1-.66-.24.69.69,0,0,1-.28-.56l-.75-4.81a15.37,15.37,0,0,1-2.33-1l-3.69,2.81a1,1,0,0,1-.65.23.86.86,0,0,1-.65-.28,37.19,37.19,0,0,1-4.3-4.39,1,1,0,0,1-.19-.61.88.88,0,0,1,.24-.56c.25-.37.68-1,1.3-1.72s1.09-1.4,1.41-1.87a13.57,13.57,0,0,1-1.08-2.57l-4.76-.7a.69.69,0,0,1-.51-.33,1.31,1.31,0,0,1-.24-.6V22.06a.92.92,0,0,1,.24-.61.86.86,0,0,1,.46-.32l4.86-.75a13.82,13.82,0,0,1,1-2.38c-.72-1-1.65-2.2-2.81-3.6a1,1,0,0,1-.28-.65,1,1,0,0,1,.24-.56,28.48,28.48,0,0,1,2.57-2.8c1.24-1.25,2.06-1.87,2.47-1.87a1.38,1.38,0,0,1,.7.23l3.59,2.81a12,12,0,0,1,2.34-1,36.37,36.37,0,0,1,.79-4.86A.85.85,0,0,1,22.13,5h5.78a.92.92,0,0,1,.61.24.84.84,0,0,1,.33.56l.7,4.81a19.7,19.7,0,0,1,2.38.93l3.69-2.76a.81.81,0,0,1,.6-.23,1.17,1.17,0,0,1,.66.23,37.74,37.74,0,0,1,4.29,4.44.83.83,0,0,1,.19.56,1,1,0,0,1-.19.61c-.28.37-.73,1-1.35,1.72s-1.09,1.4-1.4,1.87a14.72,14.72,0,0,1,1.07,2.52l4.76.75a.84.84,0,0,1,.56.33.72.72,0,0,1,.19.6Z"/></svg>
